X:1
T:Title
%%score ( 1 2 ) { 3 | 4 }
L:1/8
Q:1/4=145
M:4/4
K:Bb
V:1 treble nm="Grand Piano, Staff 1"
V:2 treble 
V:3 bass nm="Choir Pad, Ernan"
V:4 bass 
V:1
 [DF]4 [B,D]2 [CE]2 | [DF]4 [FB]4 | B2 A2 G2 A2 | [DB]8 | [EG]4 [EG]2 [EG]2 | [DF]4 [CF]2 [FA]2 | %6
w: By~Lowell~Mason,~1850 * *||||||
 c2 B2 [FA]2 [=EG]2 | F8 | [DF]4 [B,D]2 [CE]2 | [DF]4 [FB]4 | B2 A2 G2 A2 | [DB]8 | %12
w: ||||||
 [EG]4 [EG]2 [EG]2 | F4 [DB]2 [Fc]2 | [Fd]2 [Ec]2 [DB]2 [CA]2 | [DB]8 |] %16
w: ||||
V:2
 x8 | x8 | E4 E4 | x8 | x8 | x8 | F4 z4 | x8 | x8 | x8 | E4 E4 | x8 | x8 | x8 | x8 | x8 |] %16
V:3
 B,4 B,2 B,2 | B,4 D4 | C4 C4 | B,8 | B,4 B,2 B,2 | B,4 A,2[K:treble] C2 | C2 D2 C2 B,2 | A,8 | %8
 B,4 B,2 B,2 | B,4[K:treble] D4 | C4 C4 | B,8 | B,4[K:bass] B,2 B,2 | B,4 F,4 | F,4 F,4 | F,8 |] %16
V:4
 B,,4 B,,2 B,,2 | B,,4 B,,4 | F,4 F,4 | B,,8 | E,4 E,2 E,2 | B,,4 F,4 | A,,2 B,,2 C,4 | F,8 | %8
 B,,4 B,,2 B,,2 | B,,4 B,,4 | F,4 F,4 | B,,8 | E,4 E,2 E,2 | D,4 B,,4 | z8 | B,,8 |] %16

